ERK
CUT[TANZ MIR NICHT MIT MEINER JUNGFER]
REG[Europa, Mitteleuropa, Deutschland]
TRD[]
FKT[]
SIG[E0952]
KEY[E0952   04  C 4/4]
MEL[1343  21-71  2_2_
    1343  211-7  1_1_
    1343  21-71  2_2_
    1343  211-7  1_1_
    21-71  232_
    21-71  232_
    1343  211-7  1_1_
    21-71  232_
    21-71  232_
    1343  211-7  1_1_ //]
BEM[]
MEL_SEM[4 1 -1 -2 -2 -1 1 2 0 -2 4 1 -1 -2 -2 0 -1 1 0 0 4 1 -1 -2 -2 -1 1 2 0 -2 4 1 -1 -2 -2 0 -1 1 0 2 -2 -1 1 2 2 -2 0 -2 -1 1 2 2 -2 -2 4 1 -1 -2 -2 0 -1 1 0 2 -2 -1 1 2 2 -2 0 -2 -1 1 2 2 -2 -2 4 1 -1 -2 -2 0 -1 1 0]
MEL_RAW[1343  21-71  22
    1343  211-7  11
    1343  21-71  22
    1343  211-7  11
    21-71  232
    21-71  232
    1343  211-7  11
    21-71  232
    21-71  232
    1343  211-7  11]
NO_REP[134321-712
    134321-71
    134321-712
    134321-71
    21-71232
    21-71232
    134321-71
    21-71232
    21-71232
    134321-71]
RTM[xxxx  xxxx  x_x_
    xxxx  xxxx  x_x_
    xxxx  xxxx  x_x_
    xxxx  xxxx  x_x_
    xxxx  xxx_
    xxxx  xxx_
    xxxx  xxxx  x_x_
    xxxx  xxx_
    xxxx  xxx_
    xxxx  xxxx  x_x_]
SCL_DEG[-71234]
SCL_SEM[1 2 2 1]

